dist/svgs/dev.svg

<!-- Generated by IcoMoon.io -->
<svg version="1.1" xmlns="http://www.w3.org/2000/svg" width="24" height="24" viewBox="0 0 24 24">
<title>dev</title>
<path d="M22 0h-20c-0.552 0-1 0.448-1 1v22c0 0.552 0.448 1 1 1h20c0.552 0 1-0.448 1-1v-22c0-0.552-0.448-1-1-1zM10.414 15l-1.414 1.414-4.414-4.414 4.414-4.414 1.414 1.414-3 3 3 3zM15 16.414l-1.414-1.414 3-3-3-3 1.414-1.414 4.414 4.414-4.414 4.414z"></path>
</svg>

<svg xmlns="http://www.w3.org/2000/svg" width="24" height="24"><path d="M22 0H2a1 1 0 0 0-1 1v22a1 1 0 0 0 1 1h20a1 1 0 0 0 1-1V1a1 1 0 0 0-1-1zM10.414 15L9 16.414 4.586 12 9 7.586 10.414 9l-3 3 3 3zM15 16.414L13.586 15l3-3-3-3L15 7.586 19.414 12 15 16.414z"/></svg>
